!!!COM: Bach, Johann Sebastian
!!!OTA: Das wohltemperirte Clavier
!!!OPR: Das wohltemperierte Klavier
!!!OTL: Fuga 6, Vol. 2
!!!XEN: The Well-Tempered Clavier, Volume 2, Fugue 6.
!!!ONB: D minor, 3-part
!!!SCT: BWV 875b
!!!YEC: Copyright 1994, David Huron
!!!YEM: Rights to all derivative electronic formats reserved.
**kern	**kern	**kern
*staff2	*staff1	*staff1
*clefF4	*clefG2	*clefG2
*k[b-]	*k[b-]	*k[b-]
*M4/4	*M4/4	*M4/4
*d:	*d:	*d:
*MM60	*MM60	*MM60
=1	=1	=1
1r	24d	1r
.	24e	.
.	24f	.
.	24g	.
.	24f	.
.	24e	.
.	24f	.
.	24g	.
.	24a	.
.	24b-	.
.	24a	.
.	24g	.
.	8a	.
.	8dd	.
.	8cc#	.
.	8ccn	.
=2	=2	=2
1r	8bn	1r
.	8b-	.
.	8a	.
.	[8g	.
.	8g]	.
.	8f	.
.	8e	.
.	8a	.
=3	=3	=3
1r	8f	24a
.	.	24bn
.	.	24cc
.	8d	24dd
.	.	24cc
.	.	24b
.	8a	24cc
.	.	24dd
.	.	24ee
.	8r	24ff
.	.	24ee
.	.	24dd
.	16r	8ee
.	16Bn	.
.	16c	8aa
.	16d	.
.	16e	8gg#
.	16f#	.
.	16g	8ggn
.	16e	.
=4	=4	=4
1r	16a	8ff#
.	16g#	.
.	16a	8ffn
.	16bn	.
.	16cc	8ee
.	16f#	.
.	16b	[8dd
.	16a	.
.	16g#	8dd]
.	16e	.
.	4a	8cc
.	.	8bn
.	[8gn	8ee
=5	=5	=5
1r	24g]	8a
.	24f	.
.	24e	.
.	24d	8bn
.	24e	.
.	24f	.
.	24e	8cc
.	24d	.
.	24c	.
.	24Bn	8g#
.	24c	.
.	24d	.
.	8c	24a
.	.	24gn
.	.	24f
.	8c#	24e
.	.	24f
.	.	24g
.	8d	24f
.	.	24e
.	.	24d
.	8G	24c#
.	.	24d
.	.	24e
=6	=6	=6
24D	8F	8d
24E	.	.
24F	.	.
24G	8B-	8c#
24F	.	.
24E	.	.
24F	8A	8d
24G	.	.
24A	.	.
24B-	8d	[8g
24A	.	.
24G	.	.
8A	8c#	16g]
.	.	16e
8d	8d	16f
.	.	16g
8c#	4e	16a
.	.	16bn
8cn	.	16ccn
.	.	16a
=7	=7	=7
8Bn	4d	16dd
.	.	16cc#
8B-	.	16dd
.	.	16ee
8A	4r	16ff
.	.	16bn
[8G	.	16ee
.	.	16dd
8G]	16r	16cc#
.	16a	16a
8F	16b-	4dd
.	16a	.
8E	16g	.
.	16b-	.
*	*strophe	*
*	*^	*
*	*S/sic	*S/ossia	*
8A	16a	16a	[8ccn
.	16g	16g	.
=8	=8	=8	=8
16D	16f#xx	8f#xx	8cc]
16d	16dxx	.	.
*	*S/fin	*S/fin	*
*	*v	*v	*
*	*S-	*
16e-	4g	8b-
16d	.	.
16c	.	4a
16e-	.	.
16d	[8fn	.
16c	.	.
16Bn	8f]	16g
16G	.	16gg
4c	8e	16aa
.	.	16gg
.	4d	16ff
.	.	16aa
[8B-	.	16gg
.	.	16ff
=9	=9	=9
8B-]	16c	16ee
.	16cc	16cc
8A	16dd	4ff
.	16cc	.
8G	16b-	.
.	16dd	.
8c	16cc	[8ee
.	16b-	.
24F	8a	16ee]
24G	.	.
.	.	8ff
24A	.	.
24B-	8g	.
24A	.	.
.	.	[16ee
24G	.	.
8A	8f	16ee]
.	.	8dd
8AA	8e	.
.	.	16cc#
=10	=10	=10
24D	8f	8dd
24E	.	.
24F	.	.
24G	8c#	8b-
24F	.	.
24E	.	.
24F	[4d	24a
24G	.	24g
24A	.	24f
24B-	.	24e
24A	.	24f
24G	.	24g
8A	8d]	24f
.	.	24e
.	.	24d
8G	8B-	24c#
.	.	24d
.	.	24e
24F	[4A	24d
24E	.	24e
24D	.	24f
24C#	.	24g
24D	.	24f
24E	.	24e
=11	=11	=11
[4D	24A]	24f
.	24G	24g
.	24F	24a
.	24E	24b-
.	24F	24a
.	24G	24g
16D]	8.F	8a
16Cn	.	.
8BB-	.	8dd
.	16G	.
8.AA	16r	8cc#
.	16G	.
.	8F#	8ccn
16D	.	.
8.GG	16r	8bn
.	16Fn	.
.	8E	8b-
16C	.	.
=12	=12	=12
8.FF	16r	8a
.	16E-	.
.	8D	8aa
16BB-	.	.
8.EEn	16r	8gg#
.	16D	.
.	8C#	8ggn
16AA	.	.
8DD	16D	8ff#
.	16a	.
4D	16b-	8ffn
.	16a	.
.	16g	[4ee
.	16b-	.
8C#	16a	.
.	16g	.
=13	=13	=13
16D	4f	8ee]
16A	.	.
16B-	.	4dd
16A	.	.
16G	[4e	.
16B-	.	.
16A	.	8cc#
16G	.	.
4F	8e]	16r
*	*	*strophe
*	*	*^
*	*	*S/sic	*S/ossia
.	.	16aa	16a
.	4d	16bb-	16b-
.	.	16aa	16a
4E	.	16gg	16g
.	.	16bb-	16b-
.	8c#	16aa	16a
.	.	16gg	16g
=14	=14	=14	=14
8D	24d	24ff	8f
.	24e	24ee	.
.	24f	24dd	.
8r	24g	24cc#	8r
.	24f	24dd	.
.	24e	24ee	.
*	*	*S/fin	*S/fin
*	*	*v	*v
*	*	*S-
4r	24f	24a
.	24g	24bn
.	24a	24cc#
.	24b-	24dd
.	24a	24cc#
.	24g	24bn
4r	8a	24cc#
.	.	24dd
.	.	24ee
.	8dd	24ff
.	.	24ee
.	.	24dd
16r	8cc#	8ee
16BBn	.	.
16C	8ccn	8aa
16D	.	.
=15	=15	=15
16E	8bn	8gg#
16F#	.	.
16G	8b-	8ggn
16E	.	.
16A	[4a	8ff#
16G#	.	.
16A	.	8ffn
16Bn	.	.
16c	8a]	8ee
16F#	.	.
16B	16r	4dd
16A	16fn	.
16G#	8.e	.
16E	.	.
[8A	.	8cc
.	16e	.
=16	=16	=16
16A]	8.d	8bn
16D	.	.
16Gn	.	4b-
16F	16d	.
16E	8.c	.
16C	.	.
[8F	.	8a
.	16c	.
16F]	8.Bn	8g#
16BBn	.	.
16E	.	4gn
16D	16B-	.
16C#	8A	.
16AA	.	.
[8D	8r	8fT
=17	=17	=17
8D]	24a	8e
.	24g	.
.	24f	.
8C#	24e	8r
.	24f	.
.	24g	.
24D	24f	4r
24Cn	24e	.
24BB-	24d	.
24AA	24c#	.
24BB-	24d	.
24C	24e	.
24BB-	8d	4r
24AA	.	.
24GG	.	.
24FF#	8A	.
24GG	.	.
24AA	.	.
8GG	8B-	24r
.	.	24d
.	.	24e
8DD	8Bn	24f
.	.	24e
.	.	24d
=18	=18	=18
8EE-	8c	24r
.	.	24b-
.	.	24a
8EEn	8c#	24g
.	.	24a
.	.	24b-
8FF	[4d	24r
.	.	24a
.	.	24b-
8FF#	.	24ccn
.	.	24b-
.	.	24a
24GG	4d_	8b-
24AA	.	.
24BB-	.	.
24C	.	8f#
24BB-	.	.
24AA	.	.
24BB-	8d]	24g
24C	.	24a
24D	.	24b-
24E-	8r	24cc
24D	.	24b-
24C	.	24a
=19	=19	=19
8D	4r	24b-
.	.	24cc
.	.	24dd
4G	.	24ee-
.	.	24dd
.	.	24cc#
.	24dd	[4dd
.	24ccn	.
.	24b-	.
8F#	24a	.
.	24b-	.
.	24cc	.
24G	8b-	8dd]
24Fn	.	.
24En	.	.
24D	8dd	8r
24E	.	.
24F	.	.
8E	8g	24gg
.	.	24ff
.	.	24een
8G	8bn	24dd
.	.	24ee
.	.	24ff
=20	=20	=20
24c	8cc	8ee
24B-	.	.
24A	.	.
24G	8r	8gg
24A	.	.
24B-	.	.
8A	24cc	8cc
.	24b-	.
.	24a	.
8c	24g	8r
.	24a	.
.	24b-	.
24F	8a	4r
24E-	.	.
24D	.	.
24C	8cc	.
24D	.	.
24E-	.	.
8D	8f	24ff
.	.	24ee-
.	.	24dd
8F	8a	24cc
.	.	24dd
.	.	24ee-
=21	=21	=21
24B-	8b-	4dd
24A	.	.
24G	.	.
24F#	[8a	.
24G	.	.
24A	.	.
24G	2a_	24cc#
24Fn	.	24dd
24E	.	24ee
24D	.	24ff
24E	.	24ee
24F	.	24dd
24E	.	24ee
24D	.	24ff
24C#	.	24gg
24BBn	.	24aa
24C#	.	24gg
24D	.	24ff
16C#	16a]	8gg
16AA	16a	.
[8D	16b-	8ff
.	16a	.
=22	=22	=22
8D]	16g	[4ee
.	16b-	.
8C#	16a	.
.	16g	.
8D	8f	16ee]
.	.	16dd
[8G	8B-	16ee-
.	.	16dd
8G]	4A	16cc#
.	.	16een
8F#	.	16dd
.	.	16ccn
16G	8G	8bn
16Fn	.	.
16E	[8g	8b-
16D	.	.
=23	=23	=23
16C#	8g]	4.a
16E	.	.
16D	16f	.
16Cn	16e	.
8BBn	16d	.
.	16f	.
8BB-	16e	[8g
.	16d	.
16AA	8c#	8g]
16A	.	.
16B-	4d	8f
16A	.	.
16G	.	4e
16B-	.	.
16A	8c#	.
16G	.	.
=24	=24	=24
16F	16d	4d
16A	16cn	.
16G	16B-	.
16F	16A	.
16E	16G	4r
16D	16B-	.
16C#	16A	.
16E	16G	.
16D	16F	2r
16Cn	16A	.
16BB-	16G	.
16AA	16F	.
16GG	16E	.
16BB-	16D	.
16AA	16C#	.
16GG	16E	.
=25	=25	=25
8FF	24D	2r
.	24E	.
.	24F	.
8BB-	24G	.
.	24F	.
.	24E	.
24AA	24F	.
24GG	24G	.
24FF	24A	.
24EE	24B-	.
24FF	24A	.
24GG	24G	.
24FF	[4A	24d
24EE	.	24e
24DD	.	24f
24CC#	.	24g
24DD	.	24f
24EE	.	24e
8DD	24A]	24f
.	24G	24g
.	24F	24a
8r	24E	24b-
.	24F	24a
.	24G	24g
=26	=26	=26
16r	8F	8a
16EE	.	.
16FF	8f	8dd
16GG	.	.
16AA	8e	8cc#
16BBn	.	.
16C	[8a	8ccn
16AA	.	.
16D	8.a]	8bn
16C#	.	.
16D	.	8b-
16E	[16g	.
16F	16g]	8a
16BBn	8f	.
16E	.	[8g
16D	16f	.
=27	=27	=27
16C#	8e	16g]
16AA	.	16g
16D	[8d	16f
16G	.	16e
8A	8d]	8.eM
8AA	8c#	.
.	.	16d
2DD;	2d;	2d;
==	==	==
*-	*-	*-
!!!CDT: 1685/3/-1750/7/28
!!!OCY: Deutschland
!!!PPP: Leipzig
!!!ODT: 1738//-1739//
!!!PDT: 1739//-1742//
!!!AFR: fuga; fugue
!!!AST: polyphony
!!!AMT: simple quadruple
!!!SCA: Bach-Werke-Verzeichnis
!!!YOR: Bach Gesellschaft
!!!SMS: British Library, various
!!!AIN: cemba; clavi
!!!EEV: 1.0
!!!RDT: 1986 November 30
!!!YER: 1994 August 10
!!!EFL: 30/48
!!!VTS: 424960342
